X: 1001
T: Jouets, Valse de
R: Waltz
M: 3/4
Q: 165
C: Michael Faubert
L: 1/8
K: D
"D"fe fg fe|"D/C#"dB AF D2|"D/B"fe fg fe|"D/A"dB AF D2|"Em"ed ef ed|
"A"c2 cd cB|AE AB cA|"D"dB AF D2|fe fg fe|"D/C#"dB AF D2|"D/B"fe fg fe|
"D/A"dB AF D2|"Em"ed  ef ed|"A"c2 cd cB|AB AG FE|1 "D"D2 DF Ad:|2 "D"D3 d "(C#+)"dc|]
|:"D"dA FA "(D#o)"GA|"Em7"B3 d dB|"A"cA Bc de|"D"f3 f df|"Bm7"bf df bf|"Em7"g3 e ed|
"A"cA ce ae|"D"f2 d2 "D/C#"c2|"Bm"BF FF "(D#o)"BF|"Em"G3 e ed|"A"cB AG "Em/G"FE|"F#7"F4F2|
"G"GF GA "A"Bc|"D"de f3f|"Em"ge ce "A"BA|1 "D"d3 d "C#+"dc:|]2 "D"d3 D FA|]

%%newpage
%%textfont * 14
%%begintext justify
%%Listening Sets
%%endtext
